assets/Nest with eggs/Flat/nest_with_eggs_flat.svg

<svg width="32" height="32" viewBox="0 0 32 32" fill="none" xmlns="http://www.w3.org/2000/svg">
<path d="M21.1656 26.5709V25.9922L18.4291 25.9922C16.536 25.9922 15 27.5282 15 29.4213V29.6152C15 29.8276 15.1724 30 15.3848 30H17.7365C19.6296 30 21.1656 28.464 21.1656 26.5709Z" fill="#00D26A"/>
<path d="M2 19.0898L30 7.89453V12.8945L14.5052 18.9727H30V24.0898H22.5707C22.4172 24.0898 22.3628 24.293 22.4957 24.3697L24.2227 25.3668C25.5324 26.123 24.9959 28.125 23.4837 28.125C23.2242 28.125 22.9693 28.0567 22.7446 27.927L17.2588 24.7597C16.4987 24.3209 15.6365 24.0898 14.7588 24.0898H2V19.0898Z" fill="#7D4533"/>
<rect x="8.14288" y="5.81055" width="15.7142" height="9.70895" rx="4.85447" fill="#B97028"/>
<path d="M12.8572 15.5195H19.1429C21.3841 15.5195 23.2601 13.9089 23.7389 11.7504C23.3373 10.1939 21.9594 9.04688 20.3214 9.04688L16.5312 11.3749L11.6786 9.04688C10.0406 9.04688 8.66275 10.1939 8.26117 11.7504C8.73992 13.9089 10.6159 15.5195 12.8572 15.5195Z" fill="#7D4533"/>
<path d="M15.9342 7.00977C15.0797 7.00977 14.2785 7.43534 13.7997 8.14019L13.7565 8.20336C12.8023 9.60973 12.3701 11.3054 12.533 12.9943L12.5596 13.2603C12.7258 14.9925 14.182 16.3124 15.9209 16.3124C17.6664 16.3124 19.1226 14.9859 19.2822 13.247L19.3122 12.9378C19.4717 11.2355 19.0262 9.52994 18.0554 8.12356C17.5733 7.42869 16.782 7.00977 15.9342 7.00977Z" fill="#00A6ED"/>
<path d="M9.12611 10.0699C9.38084 9.33783 9.98468 8.77525 10.7355 8.57408C11.4804 8.37448 12.2743 8.55627 12.8615 9.05332C14.0456 10.0605 14.8387 11.4542 15.0992 12.9875L15.1457 13.2662C15.4149 14.8317 14.4477 16.3401 12.914 16.7511C11.3861 17.1605 9.79581 16.3436 9.24192 14.8607L9.15593 14.6332C8.61514 13.1876 8.5957 11.5959 9.10301 10.1356L9.12611 10.0699Z" fill="#26C9FC"/>
<path d="M19.1899 9.07061C19.7765 8.564 20.5808 8.37872 21.3315 8.57989C22.0765 8.7795 22.6731 9.33388 22.9331 10.0579C23.455 11.5222 23.4449 13.1258 22.9039 14.5839L22.8048 14.8486C22.2552 16.3388 20.6634 17.1616 19.1297 16.7506C17.6018 16.3412 16.633 14.8386 16.8948 13.2775L16.934 13.0375C17.1885 11.5151 17.9675 10.127 19.1371 9.11594L19.1899 9.07061Z" fill="#26C9FC"/>
<path fill-rule="evenodd" clip-rule="evenodd" d="M21.7532 2.84086C21.5932 3.0659 21.6459 3.37807 21.8709 3.53811C22.7372 4.15422 23.7215 5.42572 24.5162 7.0925C22.7912 5.15108 19.5951 2.99219 14.3437 2.99219C14.0676 2.99219 13.8437 3.21605 13.8437 3.49219C13.8437 3.76833 14.0676 3.99219 14.3437 3.99219C16.7662 3.99219 18.7068 4.47743 20.2388 5.17859C19.6789 5.06248 19.0989 5.00146 18.5047 5.00146H13.4954C11.3849 5.00146 9.45408 5.77109 7.9684 7.04501C8.63358 6.14159 9.38725 5.43775 10.0984 4.93054C10.3232 4.7702 10.3755 4.45796 10.2151 4.23314C10.0548 4.00832 9.74252 3.95606 9.5177 4.11641C7.40358 5.62429 4.98663 8.67192 4.98663 13.2862C4.98663 13.3267 4.99146 13.3661 5.00056 13.4039C5.00023 13.4348 5.00006 13.4658 5.00006 13.4968C5.00006 18.1886 8.80356 21.9921 13.4954 21.9921H18.5047C23.1965 21.9921 27 18.1886 27 13.4968C27 13.3754 26.9975 13.2546 26.9924 13.1344C26.9544 10.9175 26.3656 8.7349 25.538 6.91782C24.6875 5.0505 23.5576 3.51061 22.4505 2.7232C22.2254 2.56315 21.9133 2.61583 21.7532 2.84086ZM12.9974 5.81055C10.3163 5.81055 8.14288 7.98398 8.14288 10.665C8.14288 13.3461 10.3163 15.5195 12.9974 15.5195H14.5835C16.6844 15.3281 18.9607 14.6838 20.795 12.6726C20.9811 12.4686 21.2973 12.454 21.5014 12.6401C21.7054 12.8262 21.7199 13.1424 21.5338 13.3465C20.6243 14.3437 19.6199 15.0376 18.589 15.5195H19.0027C21.6837 15.5195 23.8571 13.3461 23.8571 10.665C23.8571 7.98398 21.6837 5.81055 19.0026 5.81055H12.9974Z" fill="#F3AD61"/>
</svg>

<svg xmlns="http://www.w3.org/2000/svg" width="32" height="32" fill="none"><path fill="#00D26A" d="M21.166 26.57v-.578h-2.737A3.43 3.43 0 0 0 15 29.422v.193c0 .213.172.385.385.385h2.351a3.43 3.43 0 0 0 3.43-3.43Z"/><path fill="#7D4533" d="M2 19.09 30 7.895v5l-15.495 6.078H30v5.117h-7.43c-.153 0-.207.203-.074.28l1.727.997c1.31.756.773 2.758-.74 2.758-.259 0-.514-.068-.738-.198l-5.486-3.167a5 5 0 0 0-2.5-.67H2v-5Z"/><rect width="15.714" height="9.709" x="8.143" y="5.811" fill="#B97028" rx="4.854"/><path fill="#7D4533" d="M12.857 15.52h6.286c2.241 0 4.117-1.611 4.596-3.77-.402-1.556-1.78-2.703-3.418-2.703l-3.79 2.328-4.852-2.328c-1.638 0-3.016 1.147-3.418 2.703.479 2.159 2.355 3.77 4.596 3.77Z"/><path fill="#00A6ED" d="M15.934 7.01c-.854 0-1.655.425-2.134 1.13l-.043.063a7.29 7.29 0 0 0-1.224 4.791l.027.266a3.376 3.376 0 0 0 3.36 3.052 3.372 3.372 0 0 0 3.362-3.065l.03-.31a7.282 7.282 0 0 0-1.257-4.813 2.584 2.584 0 0 0-2.12-1.114Z"/><path fill="#26C9FC" d="M9.126 10.07a2.35 2.35 0 0 1 1.61-1.496 2.35 2.35 0 0 1 2.125.48 6.623 6.623 0 0 1 2.238 3.934l.047.278a3.07 3.07 0 0 1-5.904 1.595l-.086-.228a6.63 6.63 0 0 1-.053-4.497l.023-.066ZM19.19 9.07a2.35 2.35 0 0 1 2.141-.49 2.35 2.35 0 0 1 1.602 1.478 6.624 6.624 0 0 1-.03 4.526l-.098.265a3.07 3.07 0 0 1-5.91-1.571l.039-.24a6.63 6.63 0 0 1 2.203-3.922l.053-.045Z"/><path fill="#F3AD61" fill-rule="evenodd" d="M21.753 2.84a.5.5 0 0 0 .118.698c.866.616 1.85 1.888 2.645 3.555-1.725-1.942-4.92-4.1-10.172-4.1a.5.5 0 0 0 0 1c2.422 0 4.363.484 5.895 1.186A8.533 8.533 0 0 0 18.505 5h-5.01c-2.11 0-4.04.77-5.527 2.044a9.598 9.598 0 0 1 2.13-2.114.5.5 0 1 0-.58-.815c-2.114 1.508-4.531 4.556-4.531 9.17 0 .04.004.08.014.118v.093a8.495 8.495 0 0 0 8.494 8.495h5.01a8.495 8.495 0 0 0 8.487-8.858c-.038-2.216-.626-4.4-1.454-6.216-.85-1.867-1.98-3.407-3.087-4.195a.5.5 0 0 0-.698.118Zm-8.756 2.97a4.854 4.854 0 1 0 0 9.71h1.587c2.1-.192 4.377-.836 6.211-2.847a.5.5 0 1 1 .739.674 9.248 9.248 0 0 1-2.945 2.173h.414a4.854 4.854 0 1 0 0-9.71h-6.006Z" clip-rule="evenodd"/></svg>
